!!!COM: Jules Massenet
!!!CNT: Francais
!!!TXO: Francais
!!!OTL: Sur la Source
!!!LYR: Armand Silvestre
!!!OPR: Poe^me d'Avril
!!!ONM: No. 7
!!!ENC: Jacob Pegg
!!!YOR: Romantic French Song 1830-1870 - David Tunley, ed.,
!!!YOR: New York: Garland Publishing, Inc., 1995, Vol. 6
!!!ODT: 1866/
!!NB: Vocal melody and text only encoded.
!!NB: First instance of melodic material only encoded.
**kern	**silbe
*clef G2	*
*k[]	*
*M2/4	*
!!created: 12/13/03 21:57
!!proofed and posted: 12/14/03 0:14
!!edit time: 49 min.
=5	=5
4r	.
{8g	{Sur
8g	la
=6	=6
8g	source
16a	el-
16b	-le
8cc	se
8dd	pen-
=7	=7
2ee}	-cha;}
=8	=8
8r	.
{8ee	{La
8ff	sour-
8ee	-ce
=9	=9
8dd	dou-
8cc	-bla
8b	son
8cc	i-
=10	=10
8dd	-ma-
8g}	-ge,}
{8g	{Et
8g	ce
=11	=11
8g	fut
16a	un
16b	char-
8cc	-mant
8dd	mi-
=12	=12
(2ee	-ra-
=13	=13
8e)}	-ge,}
{8e	{Qu'un
8f#	peu
8g#	de
=14	=14
(8a	vent
16cc#)}	|}
16r	.
{8b	{ef-
16b	-fa-
16f#	-rou-
=15	=15
8g#}	-cha.}
8r	.
4r	.
!!16-25 rest; repeat material
=26	=26
8r	.
8r	.
{8f	{Que
8g	le
=27	=27
8a-	vent
8cc	loin-
8b-	-tain
16b-	em-
16f	-por-
=28	=28
8g}	-ta.}
8r	.
4r	.
=29	=29
4r	.
4r	.
=30	=30
2r	.
=31	=31
8r	.
{8g	{Quand
8g	j'ef-
8g	-fleu-
=32	=32
8g	-rai
(16a	son
16b)	|
8cc	doux
8dd	vi-
=33	=33
2ee	-sa-
=34	=34
4ee}	-ge,}
{(8ff	{Sa
8ee)	|
=35	=35
8dd	bou-
16cc	-che
16cc	ma
8b	bou-
16cc	-che
16cc	dou-
=36	=36
2dd}	-bla.}
=37	=37
16r	.
{16cc	{Le
16cc	vent
16cc	peut
16cc	ba-
16cc	-la-
16.cc	-yer
32dd	la
=38	=38
(4dd	pla-
8cc)}	-ge;}
8r	.
=39	=39
16r	.
{16dd	{Mi-
16dd	-gnon-
16dd	-ne,
16dd	que
16dd	me
16.dd	fait
32ee	l'o-
=40	=40
(4ee	-ra-
8dd)}	-ge,}
8r	.
!!41-43 repeat material
=44	=44
4r	.
8r	.
{16cc	{Ton
16cc	bai-
=45	=45
4cc}	-ser}
8r	.
{16a	{res-
16a	-te
=46	=46
4a}	la\,}
8r	.
{16g	{tou-
16g	-jours
=47	=47
[2g	la\!
=48	=48
4g]}	|}
4r;	.
*-	*-
